Obsidian/actions/16s/database-change-key.svg

<svg height="16" width="16" xmlns="http://www.w3.org/2000/svg"><g fill="#bebebe"><path d="m4.5 3c-2.49 0-4.5 2.02-4.5 4.5 0 1.221.48724 2.3228 1.2734 3.133l2.1231-2.1232c-.244-.2667-.3965-.6188-.3965-1.0098 0-.82.67-1.5 1.5-1.5.3901 0 .7414.1541 1.0078.3984l2.1192-2.1191c-.8224-.7958-1.9342-1.273-3.127-1.2793zm9.592 3-3.008 3h.916v2h3v-2h1v-3z"/><path d="m2 11.32v2.68h2.67l6.75-6.75-2.67-2.68zm11.79-6.43c.28-.28.28-.73 0-1.01l-1.67-1.67c-.29-.28-.73-.28-1.01 0l-1.4 1.4 2.67 2.68z"/></g></svg>

<svg xmlns="http://www.w3.org/2000/svg" width="16" height="16" version="1.1">
 <defs>
  <style id="current-color-scheme" type="text/css">
   .ColorScheme-Text { color:#bebebe; } .ColorScheme-Highlight { color:#4285f4; }
  </style>
 </defs>
 <path style="fill:currentColor" class="ColorScheme-Text" d="M 4.5,3 C 2.01,3 0,5.02 0,7.5 0,8.721 0.48724,9.8228 1.2734,10.633 L 3.3965,8.5098 C 3.1525,8.2431 3,7.891 3,7.5 3,6.68 3.67,6 4.5,6 4.8901,6 5.2414,6.1541 5.5078,6.3984 L 7.627,4.2793 C 6.8046,3.4835 5.6928,3.0063 4.5,3 Z M 14.092,6 11.084,9 H 12 V 11 H 15 V 9 H 16 V 6 Z"/>
 <path style="fill:currentColor" class="ColorScheme-Text" d="M 2,11.32 V 14 H 4.67 L 11.42,7.25 8.75,4.57 Z M 13.79,4.89 C 14.07,4.61 14.07,4.16 13.79,3.88 L 12.12,2.21 C 11.83,1.93 11.39,1.93 11.11,2.21 L 9.71,3.61 12.38,6.29 Z"/>
</svg>
